!!!OTL: Wiedersehn an der Bahre (24a), S. 98
!!!id: T0145
**kern
*clefG2
*k[f#c#]
*D:
{8d
8d
8e
=1
4.f#
8g
8e
8f#
=2
4d}
8r
=3
{8d
8f#
8g
=4
4.a
8b
8g
8a
=5
4.f#}
=6
{8a
8dd
8cc#
=7
4.b
8a
8g
8b
=8
4.a}
=9
{8f#
8d
8e
=10
8f#
8a
4a
4g
=11
4.f#}
=12
{8a
8dd
8cc#
=13
4.b
8a
8g
8b
=14
4.a}
=15
{8f#
8d
8e
=16
8f#
8a
4a
4g
=17
4.f#}
==
*-
!!!minrhy: 8
!!!meters: 3/4 ]  ZZ[6
!!!cut: Wiedersehn an der Bahre (24a), S. 98
!!!reg: Luxemburg
!!!trd: Singendes Volk, Esch-Alzette 1937 posth.
!!!rhy1: XXX  X_.XXX  X_0
!!!rhy2: XXX  X_.XXX  X_.
!!!key: T0145  08  D 3/4 ]  ZZ[6
!!!mod: HEPTATONIK IONISCH]  AMBITUS[8
!!!kad: 135353
!!!akz: 31_53_65_33_65_33_
!!!fot: 'a__as'b__c__b__c__
!!!for: 'a__av_av_b__av_b__
!!!fok: '^__^a_^__S__^__S__
!! PHRAS[AUFTAKTIG]
!!!fkt: Liebeslieder
!!!bem1: Vianden, fff Wedekind, 18.4.1916;
!!!bem2: (24b)- Rodershausen, fff Elli Bindels 1930
!! THILL, Mathias:
!! PR[32] 2K[3] 2G[9] 3K[6] 3G[12] 4A[3] 4Ü[0] 5A[0] 6K[0] 6G[0]
!! 7K[0] 7G[0] 8A[0] MEHR[0] SI[32] ABS[34] SR[12] SP[21]
!! ST[7] 2k[3] 2g[21] 3k[3] 3g[0] 4d[3] 4ü[0] 5d[6] 6k[0] 6g[0]
!! 7k[0] 7g[0] 8d[0] mehr[0] si[35] dm[-3] sr[24] sp[12]
!! 1F[53] 2F[42] 3F[3] 4F[0] LF[0] 2P[3] 3P[0] 4P[0] TRI[0] DF[4] AB[36]
!! TF[0] U3K[0] U3[0] U4[0] U4Ü[0] U5[0] U6K[0] U6[0] U7K[0] U7[0]
!! N1[17] N2K[0] N2[11] N3K[0] N3[23] N4[9] N4Ü[0] N5[20] N6K[0] N6[14]
!!!n7k: 0] N7[0] O1[6] O2K[0] O2[0] O3K[0] O3[0] HÖ[0
